lib/brands/icons/azure.svg

<svg xmlns="http://www.w3.org/2000/svg" fill="none" aria-hidden="true" viewBox="0 0 48 48"><g id="azure-Icon"><path id="Vector" fill="#0089D6" d="M22.6545 36.453C27.2797 35.6359 31.0998 34.9598 31.1437 34.9505L31.2234 34.9336L26.8568 29.7396C24.4552 26.883 22.4902 24.5346 22.4902 24.5211C22.4902 24.4955 26.9991 12.0789 27.0244 12.0347C27.0329 12.02 30.1014 17.3176 34.4625 24.8764C38.5456 31.9532 41.9118 37.788 41.9431 37.8427L42 37.9421L28.1226 37.9403L14.2451 37.9385L22.6545 36.453V36.453ZM6 34.8691C6 34.8617 8.05753 31.29 10.5723 26.9319L15.1446 19.0081L20.473 14.5365C23.4037 12.077 25.8094 10.0618 25.819 10.058C25.8287 10.0544 25.7901 10.1515 25.7333 10.2737C25.6766 10.396 23.0729 15.9806 19.9474 22.684L14.2646 34.872L10.1323 34.8772C7.85954 34.88 6 34.8764 6 34.8691V34.8691Z"/></g></svg>

<svg xmlns="http://www.w3.org/2000/svg" fill="none" aria-hidden="true" viewBox="0 0 48 48"><path fill="#0089D6" d="M22.654 36.453c4.626-.817 8.446-1.493 8.49-1.503l.08-.016-4.367-5.194c-2.402-2.857-4.367-5.205-4.367-5.219 0-.026 4.51-12.442 4.534-12.486.009-.015 3.077 5.283 7.438 12.841l7.481 12.967.057.1-13.877-.003-13.878-.002 8.41-1.485ZM6 34.869c0-.007 2.058-3.579 4.572-7.937l4.573-7.924 5.328-4.471c2.93-2.46 5.336-4.475 5.346-4.479.01-.004-.029.094-.086.216l-5.786 12.41-5.682 12.188-4.133.005C7.86 34.88 6 34.877 6 34.87Z"/></svg>
